src/assets/images/Ensolarado.svg

<svg xmlns="http://www.w3.org/2000/svg" width="27" height="27" fill="none" viewBox="0 0 27 27"><path stroke="#ed653b" stroke-linecap="round" stroke-linejoin="round" stroke-width="2" d="M13.5 24.75V26m11.25-12.5H26M13.5 2.25V1M2.25 13.5H1"/><path fill="#ed653b" stroke="#ed653b" stroke-linecap="round" stroke-linejoin="round" stroke-width="2" d="M13.5 7.25c3.45 0 6.25 2.8 6.25 6.25s-2.8 6.25-6.25 6.25-6.25-2.8-6.25-6.25 2.8-6.25 6.25-6.25"/><path stroke="#ed653b" stroke-linecap="round" stroke-linejoin="round" stroke-width="2" d="m21.625 21.625.625.625m-.625-16.875.625-.625m-16.875.625L4.75 4.75m.625 16.875-.625.625"/></svg>

<svg width="27" height="27" viewBox="0 0 27 27" fill="none" xmlns="http://www.w3.org/2000/svg">
<path d="M13.5 24.75V26M24.75 13.5H26M13.5 2.25V1M2.25 13.5H1" stroke="#ED653B" stroke-width="2" stroke-linecap="round" stroke-linejoin="round"/>
<path d="M13.5 7.25C16.95 7.25 19.75 10.05 19.75 13.5C19.75 16.95 16.95 19.75 13.5 19.75C10.05 19.75 7.25 16.95 7.25 13.5C7.25 10.05 10.05 7.25 13.5 7.25Z" fill="#ED653B" stroke="#ED653B" stroke-width="2" stroke-linecap="round" stroke-linejoin="round"/>
<path d="M21.625 21.625L22.25 22.25M21.625 5.375L22.25 4.75M5.375 5.375L4.75 4.75M5.375 21.625L4.75 22.25" stroke="#ED653B" stroke-width="2" stroke-linecap="round" stroke-linejoin="round"/>
</svg>
